src/assets/svg/social/instagram.svg

<svg width="22" height="22" viewBox="0 0 22 22" fill="none" xmlns="http://www.w3.org/2000/svg">
    <path
        d="M12.1308 0C13.3682 0.00329992 13.9963 0.00989976 14.5386 0.0252994L14.752 0.0329992C14.9984 0.041799 15.2415 0.0527987 15.5351 0.0659983C16.7055 0.120997 17.504 0.305793 18.2047 0.577486C18.9307 0.856879 19.5422 1.23527 20.1538 1.84576C20.7133 2.39545 21.1462 3.06065 21.422 3.79491C21.6937 4.49559 21.8785 5.29417 21.9335 6.46564C21.9467 6.75824 21.9577 7.00133 21.9665 7.24882L21.9731 7.46222C21.9896 8.00341 21.9962 8.63149 21.9984 9.86896L21.9995 10.6895V12.1305C22.0022 12.9328 21.9938 13.7352 21.9742 14.5372L21.9676 14.7506C21.9588 14.9981 21.9478 15.2412 21.9346 15.5338C21.8796 16.7053 21.6926 17.5028 21.422 18.2046C21.1462 18.9388 20.7133 19.604 20.1538 20.1537C19.6041 20.7133 18.9389 21.1461 18.2047 21.422C17.504 21.6937 16.7055 21.8785 15.5351 21.9335L14.752 21.9665L14.5386 21.9731C13.9963 21.9885 13.3682 21.9962 12.1308 21.9984L11.3103 21.9995H9.87043C9.06775 22.0023 8.26508 21.9939 7.46265 21.9742L7.24926 21.9676C6.98814 21.9577 6.72709 21.9463 6.4661 21.9335C5.29576 21.8785 4.4972 21.6937 3.79543 21.422C3.06158 21.1459 2.39679 20.7131 1.84743 20.1537C1.2875 19.6041 0.854302 18.9389 0.578097 18.2046C0.30641 17.5039 0.121619 16.7053 0.0666222 15.5338L0.0336239 14.7506L0.0281244 14.5372C0.00784803 13.7352 -0.00131916 12.9328 0.000625645 12.1305V9.86896C-0.00241889 9.06664 0.00564823 8.26432 0.0248245 7.46222L0.0325241 7.24882C0.0413236 7.00133 0.0523231 6.75824 0.0655224 6.46564C0.12052 5.29417 0.30531 4.49669 0.576997 3.79491C0.853846 3.06034 1.28781 2.39512 1.84853 1.84576C2.39757 1.28647 3.06198 0.85366 3.79543 0.577486C4.4972 0.305793 5.29466 0.120997 6.4661 0.0659983C6.75868 0.0527987 7.00287 0.041799 7.24926 0.0329992L7.46265 0.0263993C8.26472 0.00685581 9.06702 -0.00157813 9.86933 0.00109989L12.1308 0ZM11.0001 5.49987C9.54145 5.49987 8.14258 6.07932 7.11118 7.11074C6.07978 8.14217 5.50035 9.54108 5.50035 10.9997C5.50035 12.4584 6.07978 13.8573 7.11118 14.8887C8.14258 15.9202 9.54145 16.4996 11.0001 16.4996C12.4587 16.4996 13.8576 15.9202 14.889 14.8887C15.9204 13.8573 16.4998 12.4584 16.4998 10.9997C16.4998 9.54108 15.9204 8.14217 14.889 7.11074C13.8576 6.07932 12.4587 5.49987 11.0001 5.49987ZM11.0001 7.69981C11.4334 7.69974 11.8625 7.78502 12.2629 7.95079C12.6633 8.11656 13.0271 8.35957 13.3336 8.66595C13.64 8.97232 13.8832 9.33606 14.0491 9.7364C14.215 10.1367 14.3004 10.5658 14.3005 10.9992C14.3005 11.4325 14.2152 11.8617 14.0495 12.2621C13.8837 12.6624 13.6407 13.0263 13.3343 13.3327C13.028 13.6392 12.6642 13.8823 12.2639 14.0483C11.8636 14.2142 11.4345 14.2996 11.0012 14.2997C10.126 14.2997 9.28667 13.952 8.66784 13.3331C8.049 12.7143 7.70134 11.8749 7.70134 10.9997C7.70134 10.1245 8.049 9.28519 8.66784 8.66634C9.28667 8.04748 10.126 7.69981 11.0012 7.69981M16.7759 3.84991C16.4112 3.84991 16.0615 3.99477 15.8037 4.25262C15.5458 4.51048 15.4009 4.86021 15.4009 5.22487C15.4009 5.58954 15.5458 5.93927 15.8037 6.19712C16.0615 6.45498 16.4112 6.59984 16.7759 6.59984C17.1405 6.59984 17.4903 6.45498 17.7481 6.19712C18.006 5.93927 18.1508 5.58954 18.1508 5.22487C18.1508 4.86021 18.006 4.51048 17.7481 4.25262C17.4903 3.99477 17.1405 3.84991 16.7759 3.84991Z"
        fill="#E8E8E8" style="mix-blend-mode:plus-lighter" />
</svg>

<svg width="22" height="22" fill="none" xmlns="http://www.w3.org/2000/svg"><path d="M12.13 0a94.95 94.95 0 0 1 2.409.025l.213.008c.246.009.49.02.783.033 1.17.055 1.969.24 2.67.511.726.28 1.337.658 1.949 1.269a5.39 5.39 0 0 1 1.268 1.949c.272.7.456 1.5.511 2.67.014.293.025.536.034.784l.006.213c.017.541.023 1.17.025 2.407l.002.82v1.441c.002.803-.006 1.605-.026 2.407l-.006.214-.033.783c-.055 1.171-.242 1.969-.513 2.67a5.39 5.39 0 0 1-1.268 1.95 5.39 5.39 0 0 1-1.95 1.268c-.7.272-1.498.456-2.669.511l-.783.034-.213.006c-.543.015-1.17.023-2.408.025l-.82.002H9.87a85.896 85.896 0 0 1-2.408-.026l-.214-.006c-.26-.01-.522-.022-.783-.035-1.17-.055-1.969-.24-2.67-.511a5.39 5.39 0 0 1-1.949-1.268 5.39 5.39 0 0 1-1.269-1.95c-.272-.7-.456-1.499-.511-2.67l-.033-.783-.006-.214c-.02-.802-.03-1.604-.027-2.407V9.87a86.9 86.9 0 0 1 .024-2.407l.008-.213c.008-.248.02-.49.033-.783.055-1.172.24-1.97.511-2.671a5.39 5.39 0 0 1 1.272-1.95A5.39 5.39 0 0 1 3.795.578c.702-.271 1.5-.456 2.671-.511.293-.013.537-.024.783-.033l.214-.007c.802-.02 1.604-.028 2.406-.025L12.131 0zM11 5.5a5.5 5.5 0 1 0 0 11 5.5 5.5 0 0 0 0-11zm0 2.2A3.3 3.3 0 1 1 11 14.3 3.3 3.3 0 0 1 11 7.7m5.775-3.85a1.375 1.375 0 1 0 0 2.75 1.375 1.375 0 0 0 0-2.75z" fill="#E8E8E8" style="mix-blend-mode:plus-lighter"/></svg>
